X:43
T: Fekete főd termi a jó búzát...
K: F
M: 2/4
L: 1/4
g a/g/ | f/d/d/c/ | f d | 
g a/g/ | f/d/d/c/ | B G | 
c d/c/ | B/G/G/F/ | B G | 
c d/c/ | B/G/G/F/ | G G | 

